public/assets/routes_avatar/organizationalStructureMaintenance.svg

<?xml version="1.0" encoding="UTF-8"?>
<svg width="60px" height="60px" viewBox="0 0 60 60" version="1.1" xmlns="http://www.w3.org/2000/svg" xmlns:xlink="http://www.w3.org/1999/xlink">
    <!-- Generator: Sketch 49.3 (51167) - http://www.bohemiancoding.com/sketch -->
    <title>组织架构-组织架构维护</title>
    <desc>Created with Sketch.</desc>
    <defs></defs>
    <g id="icon" stroke="none" stroke-width="1" fill="none" fill-rule="evenodd">
        <g id="组织架构-组织架构维护">
            <circle id="Oval-Copy" fill="#49A7FF" cx="30" cy="30" r="30"></circle>
            <path d="M42.7647059,35.5151515 L40.7058824,35.5151515 L40.7058824,30 C40.7058824,29.2978056 40.1521298,28.7272727 39.4705882,28.7272727 L30.8235294,28.7272727 L30.8235294,24.4848485 L32.8823529,24.4848485 C33.5638945,24.4848485 34.1176471,23.9143156 34.1176471,23.2121212 L34.1176471,17.2727273 C34.1176471,16.5705329 33.5638945,16 32.8823529,16 L27.1176471,16 C26.4361055,16 25.8823529,16.5705329 25.8823529,17.2727273 L25.8823529,23.2121212 C25.8823529,23.9143156 26.4361055,24.4848485 27.1176471,24.4848485 L29.1764706,24.4848485 L29.1764706,28.7272727 L20.5294118,28.7272727 C19.8478702,28.7272727 19.2941176,29.2978056 19.2941176,30 L19.2941176,35.5151515 L17.2352941,35.5151515 C16.5537525,35.5151515 16,36.0856844 16,36.7878788 L16,42.7272727 C16,43.4294671 16.5537525,44 17.2352941,44 L23,44 C23.6815416,44 24.2352941,43.4294671 24.2352941,42.7272727 L24.2352941,36.7878788 C24.2352941,36.0856844 23.6815416,35.5151515 23,35.5151515 L20.9411765,35.5151515 L20.9411765,30.4242424 L29.1764706,30.4242424 L29.1764706,35.5151515 L27.1176471,35.5151515 C26.4361055,35.5151515 25.8823529,36.0856844 25.8823529,36.7878788 L25.8823529,42.7272727 C25.8823529,43.4294671 26.4361055,44 27.1176471,44 L32.8823529,44 C33.5638945,44 34.1176471,43.4294671 34.1176471,42.7272727 L34.1176471,36.7878788 C34.1176471,36.0856844 33.5638945,35.5151515 32.8823529,35.5151515 L30.8235294,35.5151515 L30.8235294,30.4242424 L39.0588235,30.4242424 L39.0588235,35.5151515 L37,35.5151515 C36.3184584,35.5151515 35.7647059,36.0856844 35.7647059,36.7878788 L35.7647059,42.7272727 C35.7647059,43.4294671 36.3184584,44 37,44 L42.7647059,44 C43.4462475,44 44,43.4294671 44,42.7272727 L44,36.7878788 C44,36.0856844 43.4462475,35.5151515 42.7647059,35.5151515 Z M27.5294118,17.6969697 L32.4705882,17.6969697 L32.4705882,22.7878788 L27.5294118,22.7878788 L27.5294118,17.6969697 Z M22.5882353,37.2121212 L22.5882353,42.3030303 L17.6470588,42.3030303 L17.6470588,37.2121212 L22.5882353,37.2121212 Z M32.4705882,42.3030303 L27.5294118,42.3030303 L27.5294118,37.2121212 L32.4705882,37.2121212 L32.4705882,42.3030303 Z M42.3529412,42.3030303 L37.4117647,42.3030303 L37.4117647,37.2121212 L42.3529412,37.2121212 L42.3529412,42.3030303 Z" id="Shape" fill="#FFFFFF" fill-rule="nonzero"></path>
        </g>
    </g>
</svg>

<svg width="60" height="60" xmlns="http://www.w3.org/2000/svg"><g fill="none" fill-rule="evenodd"><circle fill="#49A7FF" cx="30" cy="30" r="30"/><path d="M42.765 35.515h-2.06V30c0-.702-.553-1.273-1.234-1.273h-8.647v-4.242h2.058c.682 0 1.236-.57 1.236-1.273v-5.94c0-.701-.554-1.272-1.236-1.272h-5.764c-.682 0-1.236.57-1.236 1.273v5.94c0 .701.554 1.272 1.236 1.272h2.058v4.242H20.53c-.681 0-1.235.57-1.235 1.273v5.515h-2.059c-.681 0-1.235.57-1.235 1.273v5.94c0 .701.554 1.272 1.235 1.272H23c.682 0 1.235-.57 1.235-1.273v-5.94c0-.701-.553-1.272-1.235-1.272h-2.059v-5.09h8.235v5.09h-2.058c-.682 0-1.236.57-1.236 1.273v5.94c0 .701.554 1.272 1.236 1.272h5.764c.682 0 1.236-.57 1.236-1.273v-5.94c0-.701-.554-1.272-1.236-1.272h-2.058v-5.09h8.235v5.09H37c-.682 0-1.235.57-1.235 1.273v5.94c0 .701.553 1.272 1.235 1.272h5.765c.681 0 1.235-.57 1.235-1.273v-5.94c0-.701-.554-1.272-1.235-1.272zM27.529 17.697h4.942v5.09h-4.942v-5.09zm-4.94 19.515v5.091h-4.942v-5.09h4.941zm9.882 5.091h-4.942v-5.09h4.942v5.09zm9.882 0h-4.941v-5.09h4.94v5.09z" fill="#FFF" fill-rule="nonzero"/></g></svg>
